public/img/common/icon-weibo.svg

<svg fill="none" height="42" viewBox="0 0 43 42" width="43" xmlns="http://www.w3.org/2000/svg"><rect fill="#fff" height="42" rx="10" width="42" x=".169922"/><g fill="#003"><path d="m19.7864 15.8452c-.0444.7702-.0837 1.3103-.1021 1.8513-.0055.1608-.0067.3951.0866.4695.159.1266.2954-.0838.418-.1843 1.2147-.9981 2.5868-1.5541 4.1572-1.5494.5042.0013.9992.0697 1.4741.2626.6201.2523.9227.7232.9591 1.3946.0372.688-.0975 1.3458-.3092 1.9924-.1565.4785-.067.5367.418.5166 1.3896-.0573 2.6788.2335 3.6864 1.3154.603.6479.7775 1.4159.7017 2.3007-.1816 2.1143-1.1189 3.8146-2.6575 5.1823-2.4177 2.1493-5.189 3.5366-8.3867 3.9976-1.598.2301-3.1935.2865-4.7928.0684-1.7541-.239-3.4504-.6949-4.9865-1.6221-1.63524-.9865-2.52525-2.4897-2.76418-4.4021-.19373-1.5498.0385-3.0496.51426-4.5232.69419-2.1503 1.94782-3.9429 3.40482-5.6056 1.0348-1.1812 2.1529-2.2772 3.3918-3.2309.7624-.5867 1.6102-1.0251 2.5944-1.0871.5665-.0359 1.1168.0094 1.5942.3746.2933.2246.4854.5149.5109.8938.0406.6034.0665 1.2077.087 1.5845zm-2.0303 16.3805c2.0047-.0226 3.9806-.4126 5.8418-1.3265 1.1896-.5842 2.252-1.3416 3.0517-2.4363 1.3122-1.797 1.1611-3.8116-.4055-5.3785-.8302-.8305-1.8424-1.3493-2.9332-1.7132-1.6395-.5474-3.3258-.6966-5.0384-.5516-1.919.162-3.7467.6555-5.4284 1.6387-1.111.6492-2.0872 1.4583-2.7219 2.6198-.7616 1.3932-.74529 2.7771.1481 4.1101.6251.9331 1.508 1.5502 2.4968 2.0159 1.5662.7381 3.227 1.0139 4.9894 1.0221z"/><path d="m27.6281 8.40211c.9729.0795 2.0721.42194 3.0986.99668 1.9292 1.07991 3.279 2.67821 4.0472 4.77971.2404.6575.3553 1.3495.3346 2.0497-.0085.2923-.1088.5958-.2282.8666-.136.3089-.4105.4737-.754.4688-.3553-.0054-.6367-.1686-.7789-.5007-.112-.2625-.203-.5437-.2472-.8261-.4642-2.9416-2.6199-5.1631-5.5062-5.6554-.1799-.0306-.3626-.0431-.5445-.0592-.558-.0493-.9782-.3731-1.0781-.84929-.0719-.34203.0162-.64431.2741-.88116.3358-.30848.7426-.40952 1.3826-.38923z"/><path d="m32.0564 16.2866c-.0429.2374-.0595.4537-.1227.6546-.1214.3872-.4359.6104-.8264.622-.3468.0103-.6232-.1747-.773-.5567-.0828-.2108-.1244-.4383-.1791-.6594-.3867-1.5582-1.3451-2.5326-2.8906-2.9249-.2916-.0738-.5773-.191-.8468-.3271-.3247-.1635-.5145-.5657-.4618-.8958.0607-.3812.3081-.5714.6587-.668.6202-.1708 1.2102-.0343 1.7824.1902 1.6783.6589 2.877 1.8097 3.4606 3.5564.1095.3271.1367.6825.1987 1.0087z"/><path d="m26.7213 14.5091c.8627.1123 1.4951.524 1.9352 1.2275.2448.3912.4141.8091.3179 1.2946-.0578.2909-.2578.4985-.5504.5286-.2777.0285-.4643-.1015-.5704-.4052-.0314-.0903-.0517-.1856-.0697-.2797-.1191-.6194-.5723-1.0457-1.194-1.1364-.1291-.0189-.2593-.0668-.3765-.1258-.1969-.0988-.2743-.2763-.2655-.4947.0092-.2234.092-.4079.3072-.4897.1582-.0602.3295-.0852.4662-.1192z"/></g><path d="m17.496 32.0727c-1.7982-.0081-3.4928-.2838-5.0908-1.0217-1.0084-.4656-1.9097-1.0824-2.54755-2.0152-.91109-1.3325-.92817-2.7159-.15114-4.1087.64769-1.1611 1.64369-1.9699 2.77729-2.6188 1.7158-.9824 3.5807-1.4758 5.5387-1.6382 1.7474-.1445 3.468.0043 5.1407.5515 1.1126.3642 2.1454.8827 2.9929 1.7125 1.5985 1.5659 1.7526 3.5803.4137 5.3766-.8155 1.0944-1.8999 1.8515-3.1137 2.4355-1.899.9135-3.9146 1.3043-5.9601 1.3265zm3.8878-5.6216c.0098-1.5898-.8185-2.765-2.1753-3.2703-2.4259-.9038-5.505.6673-6.2692 3.1994-.6174 2.0455.5448 3.9641 2.6475 4.3309 1.6663.2907 3.1106-.2171 4.339-1.3432.9016-.8263 1.4255-1.8527 1.458-2.9168z" fill="#fff"/><path d="m21.3648 26.333c-.0317 1.0327-.5424 2.0284-1.4225 2.8308-1.1984 1.0928-2.6075 1.5857-4.2332 1.3036-2.0515-.356-3.1853-2.2184-2.583-4.2033.7456-2.457 3.7497-3.9821 6.1164-3.105 1.3233.4904 2.1318 1.6313 2.1223 3.1739zm-5.1567-.1266c-.9206-.0161-1.6712.9194-1.4512 1.809.1432.5796.6881.9555 1.2791.8833.6844-.0838 1.2113-.6099 1.3234-1.321.1128-.7178-.4249-1.3584-1.1513-1.3713zm2.2622-.2485c.0045-.2883-.1996-.5074-.4799-.5144-.3307-.0087-.6198.2755-.6248.6136-.0042.2912.1966.5082.4774.5161.3265.0091.6223-.2813.6273-.6153z" fill="#003"/><path d="m16.2055 26.7275c.8354.0109 1.4538.5541 1.324 1.1628-.1284.6027-.7348 1.0489-1.5218 1.1203-.6797.0616-1.3063-.2575-1.4711-.7491-.2529-.7543.6098-1.5478 1.6689-1.534z" fill="#fff"/><path d="m18.3105 26.3117c-.0035.2256-.2077.4213-.4335.4154-.1941-.0053-.333-.1519-.3301-.3487.0035-.2285.2034-.4203.4321-.4147.1935.0048.3343.1531.3315.348z" fill="#fff"/></svg>

<svg width="43" height="42" viewBox="0 0 43 42" fill="none" xmlns="http://www.w3.org/2000/svg">
<rect x="0.169922" width="42" height="42" rx="10" fill="white"/>
<path d="M19.7864 15.8452C19.742 16.6154 19.7027 17.1555 19.6843 17.6965C19.6788 17.8573 19.6776 18.0916 19.7709 18.166C19.9299 18.2926 20.0663 18.0822 20.1889 17.9817C21.4036 16.9836 22.7757 16.4276 24.3461 16.4323C24.8503 16.4336 25.3453 16.502 25.8202 16.6949C26.4403 16.9472 26.7429 17.4181 26.7793 18.0895C26.8165 18.7775 26.6818 19.4353 26.4701 20.0819C26.3136 20.5604 26.4031 20.6186 26.8881 20.5985C28.2777 20.5412 29.5669 20.832 30.5745 21.9139C31.1775 22.5618 31.352 23.3298 31.2762 24.2146C31.0946 26.3289 30.1573 28.0292 28.6187 29.3969C26.201 31.5462 23.4297 32.9335 20.232 33.3945C18.634 33.6246 17.0385 33.681 15.4392 33.4629C13.6851 33.2239 11.9888 32.768 10.4527 31.8408C8.81746 30.8543 7.92745 29.3511 7.68852 27.4387C7.49479 25.8889 7.72702 24.3891 8.20278 22.9155C8.89697 20.7652 10.1506 18.9726 11.6076 17.3099C12.6424 16.1287 13.7605 15.0327 14.9994 14.079C15.7618 13.4923 16.6096 13.0539 17.5938 12.9919C18.1603 12.956 18.7106 13.0013 19.188 13.3665C19.4813 13.5911 19.6734 13.8814 19.6989 14.2603C19.7395 14.8637 19.7654 15.468 19.7859 15.8448L19.7864 15.8452ZM17.7561 32.2257C19.7608 32.2031 21.7367 31.8131 23.5979 30.8992C24.7875 30.315 25.8499 29.5576 26.6496 28.4629C27.9618 26.6659 27.8107 24.6513 26.2441 23.0844C25.4139 22.2539 24.4017 21.7351 23.3109 21.3712C21.6714 20.8238 19.9851 20.6746 18.2725 20.8196C16.3535 20.9816 14.5258 21.4751 12.8441 22.4583C11.7331 23.1075 10.7569 23.9166 10.1222 25.0781C9.3606 26.4713 9.37691 27.8552 10.2703 29.1882C10.8954 30.1213 11.7783 30.7384 12.7671 31.2041C14.3333 31.9422 15.9941 32.218 17.7565 32.2262L17.7561 32.2257Z" fill="#000033"/>
<path d="M27.6281 8.40211C28.601 8.48161 29.7002 8.82405 30.7267 9.39879C32.6559 10.4787 34.0057 12.077 34.7739 14.1785C35.0143 14.836 35.1292 15.528 35.1085 16.2282C35.1 16.5205 34.9997 16.824 34.8803 17.0948C34.7443 17.4037 34.4698 17.5685 34.1263 17.5636C33.771 17.5582 33.4896 17.395 33.3474 17.0629C33.2354 16.8004 33.1444 16.5192 33.1002 16.2368C32.636 13.2952 30.4803 11.0737 27.594 10.5814C27.4141 10.5508 27.2314 10.5383 27.0495 10.5222C26.4915 10.4729 26.0713 10.1491 25.9714 9.67291C25.8995 9.33088 25.9876 9.0286 26.2455 8.79175C26.5813 8.48327 26.9881 8.38223 27.6281 8.40252V8.40211Z" fill="#000033"/>
<path d="M32.0564 16.2866C32.0135 16.524 31.9969 16.7403 31.9337 16.9412C31.8123 17.3284 31.4978 17.5516 31.1073 17.5632C30.7605 17.5735 30.4841 17.3885 30.3343 17.0065C30.2515 16.7957 30.2099 16.5682 30.1552 16.3471C29.7685 14.7889 28.8101 13.8145 27.2646 13.4222C26.973 13.3484 26.6873 13.2312 26.4178 13.0951C26.0931 12.9316 25.9033 12.5294 25.956 12.1993C26.0167 11.8181 26.2641 11.6279 26.6147 11.5313C27.2349 11.3605 27.8249 11.497 28.3971 11.7215C30.0754 12.3804 31.2741 13.5312 31.8577 15.2779C31.9672 15.605 31.9944 15.9604 32.0564 16.2866Z" fill="#000033"/>
<path d="M26.7213 14.5091C27.584 14.6214 28.2164 15.0331 28.6565 15.7366C28.9013 16.1278 29.0706 16.5457 28.9744 17.0312C28.9166 17.3221 28.7166 17.5297 28.424 17.5598C28.1463 17.5883 27.9597 17.4583 27.8536 17.1546C27.8222 17.0643 27.8019 16.969 27.7839 16.8749C27.6648 16.2555 27.2116 15.8292 26.5899 15.7385C26.4608 15.7196 26.3306 15.6717 26.2134 15.6127C26.0165 15.5139 25.9391 15.3364 25.9479 15.118C25.9571 14.8946 26.0399 14.7101 26.2551 14.6283C26.4133 14.5681 26.5846 14.5431 26.7213 14.5091Z" fill="#000033"/>
<path d="M17.496 32.0727C15.6978 32.0646 14.0032 31.7889 12.4052 31.051C11.3968 30.5854 10.4955 29.9686 9.85765 29.0358C8.94656 27.7033 8.92948 26.3199 9.70651 24.9271C10.3542 23.766 11.3502 22.9572 12.4838 22.3083C14.1996 21.3259 16.0645 20.8325 18.0225 20.6701C19.7699 20.5256 21.4905 20.6744 23.1632 21.2216C24.2758 21.5858 25.3086 22.1043 26.1561 22.9341C27.7546 24.5 27.9087 26.5144 26.5698 28.3107C25.7543 29.4051 24.6699 30.1622 23.4561 30.7462C21.5571 31.6597 19.5415 32.0505 17.496 32.0727ZM21.3838 26.4511C21.3936 24.8613 20.5653 23.6861 19.2085 23.1808C16.7826 22.277 13.7035 23.8481 12.9393 26.3802C12.3219 28.4257 13.4841 30.3443 15.5868 30.7111C17.2531 31.0018 18.6974 30.494 19.9258 29.3679C20.8274 28.5416 21.3513 27.5152 21.3838 26.4511Z" fill="white"/>
<path d="M21.3648 26.333C21.3331 27.3657 20.8224 28.3614 19.9423 29.1638C18.7439 30.2566 17.3348 30.7495 15.7091 30.4674C13.6576 30.1114 12.5238 28.249 13.1261 26.2641C13.8717 23.8071 16.8758 22.282 19.2425 23.1591C20.5658 23.6495 21.3743 24.7904 21.3648 26.333ZM16.2081 26.2064C15.2875 26.1903 14.5369 27.1258 14.7569 28.0154C14.9001 28.595 15.445 28.9709 16.036 28.8987C16.7204 28.8149 17.2473 28.2888 17.3594 27.5777C17.4722 26.8599 16.9345 26.2193 16.2081 26.2064ZM18.4703 25.9579C18.4748 25.6696 18.2707 25.4505 17.9904 25.4435C17.6597 25.4348 17.3706 25.719 17.3656 26.0571C17.3614 26.3483 17.5622 26.5653 17.843 26.5732C18.1695 26.5823 18.4653 26.2919 18.4703 25.9579Z" fill="#000033"/>
<path d="M16.2055 26.7275C17.0409 26.7384 17.6593 27.2816 17.5295 27.8903C17.4011 28.493 16.7947 28.9392 16.0077 29.0106C15.328 29.0722 14.7014 28.7531 14.5366 28.2615C14.2837 27.5072 15.1464 26.7137 16.2055 26.7275Z" fill="white"/>
<path d="M18.3105 26.3117C18.307 26.5373 18.1028 26.733 17.877 26.7271C17.6829 26.7218 17.544 26.5752 17.5469 26.3784C17.5504 26.1499 17.7503 25.9581 17.979 25.9637C18.1725 25.9685 18.3133 26.1168 18.3105 26.3117Z" fill="white"/>
</svg>
